!!!OTL: Schloss in Oestreich In Oestreich stand ein altes Schloss,
!!!ARE: Europa, Mitteleuropa, Lothringen, Settingen
!!!SCT: D0054
!!!YEM: Copyright 1995, estate of Helmut Schaffrath.
**kern
*ICvox
*Ivox
*M3/4
*k[]
*C:
{8g
=1
8g
8cc
4.e
8e
=2
8e
8g
4.e}
{8g
=3
8g
8g
4.a
8f
=4
4f
4e
8r}
{8g
=5
8g
8b
4.dd
8f
=6
8e
8g
4c
4r}
=7
{4ee
16dd
16cc
16b
16a
8g
8f
=8
4f
4e
8r}
{8g
=9
8g
8cc
4.e
8e
=10
8e
8g
4.e}
{8g
=11
8g
8g
4.a
8f
=12
4f
4e
8r}
{8g
=13
8g
8b
4.dd
8f
=14
8e
8g
4c
4r}
=15
{4ee
16dd
16cc
16b
16a
8g
8f
=16
4f
4e
8r}
==
!!!AGN:  Ballade, Liebe, menschliche Grausamkeit
!! Inzipit = Variante zum Lied
!!!ONB: ESAC (Essen Associative Code) Database: DVA
!!!AMT: simple triple
!!!AIN: vox
!!!EED: Helmut Schaffrath
!!!EEV: 1.0
*-
